X: 11094
T: The SPIRIT HORNPIPE
C: Bob McQuillen 9 July 2000
B: Bob's Note Book 11 #94
R: hornpipe, reel
Z: 2019 John Chambers <jc:trillian.mit.edu>
M: C
L: 1/8
K: D
fe \
| d2AF Adfd | edcB A2FA | GBeg fdBA | dBAF E2AB |
| d2AF Adfd | edBd AFDF | GBed cAfe | d2D2 D2  :|
|: de \
| fafd edfa | gfed B2dB | A2AG FAde | fafd e2ag |
| fafd edBd | gfed cBAG | FAdf Aceg | f2d2 d2  :|
%%begintext align
%% Well, if _you_ were going
%% to write a tune for Blythe Knacktel of Seattle, what
%% would _you_ call it? Of Course! - Blythe's back here
%% in New England, these days, with her fiddle, soaking
%% up tunes and having a great time generally. It's
%% nice to see you at our dances, Blythe!
%%endtext

%%sep 1 1 500

%%sep 1 1 500

